_icons/SVG/240-magby.svg

<svg xmlns="http://www.w3.org/2000/svg" width="32" height="32"><path fill="#EB6B48" d="M19.017 29c-.021-2 1.165-6 1.165-6l2.81-.25s-.005 3.362-1.523 5.647c.219.134.434.295.633.493.919.919 1.167 2.161.555 2.773-.613.613-1.854.364-2.773-.555-.656-.654-.962-1.47-.867-2.108z"/><path fill="#F57552" d="M12.975 29c.021-2-1.165-6-1.165-6L9 22.75s.005 3.362 1.523 5.647a3.428 3.428 0 00-.633.493c-.919.919-1.167 2.161-.555 2.773.613.613 1.854.364 2.773-.555.656-.654.963-1.47.867-2.108z"/><path fill="#EB6B48" d="M19.066 21s4.376-2.917 6.277-6.883c.539-1.125 1.818-1.679 2.976-1.216 1.487.595 1.951 2.489.88 3.681-1.688 1.88-4.612 4.288-9.133 5.418l-1-1z"/><path fill="#F57552" d="M13 21s-4.376-2.917-6.277-6.883c-.539-1.125-1.818-1.679-2.976-1.216-1.487.595-1.951 2.489-.88 3.681C4.555 18.462 7.479 20.87 12 22l1-1z"/><path fill="#EB6B48" d="M23 22.75c0-4.349-3.134-8.75-7-8.75v14c3.866 0 7-.901 7-5.25z"/><path fill="#F57552" d="M16 14c-3.866 0-7 4.401-7 8.75S12.134 28 16 28V14z"/><path fill="#FF805D" d="M16 5a7 7 0 00-7 7c0 3.866 3.134 6 7 6V5z"/><path fill="#F57552" d="M23 12a7 7 0 00-7-7v13c3.866 0 7-2.134 7-6z"/><path fill="#FFF" d="M14 8v5l-1.5 1S11 13 11 9l3-1z"/><path fill="#F7F7F7" d="M18 8v5l1.5 1S21 13 21 9l-3-1z"/><path fill="#FF805D" d="M16 1.38A3.972 3.972 0 0013 0a4 4 0 000 8c1.202 0 3-.38 3-.38V1.38z"/><path fill="#F57552" d="M19 0a3.972 3.972 0 00-3 1.38v6.24S17.798 8 19 8a4 4 0 000-8z"/><circle fill="#FF8D6E" cx="8" cy="5" r="4"/><path fill="#2B3332" d="M19.5 11c0 1.036-.336 1.5-.75 1.5S18 12.036 18 11V9h1.5v2z"/><path fill="#373F3F" d="M14 11c0 1.036-.336 1.5-.75 1.5s-.75-.464-.75-1.5V9H14v2z"/><path fill="#FFF" d="M13.5 10.5c0 .276-.112.5-.25.5s-.25-.224-.25-.5v-1h.5v1z"/><circle fill="#FF9A7E" cx="12" cy="6" r="4"/><path fill="#F7F7F7" d="M19 10.5c0 .276-.112.5-.25.5s-.25-.224-.25-.5v-1h.5v1z"/><circle fill="#FF805D" cx="25" cy="5" r="4"/><circle fill="#FF8D6E" cx="20" cy="6" r="4"/><path fill="#FFD04D" d="M16 12v6c2.209 0 4-1.343 4-3s-1.791-3-4-3z"/><path fill="#FFD96C" d="M12 15c0 1.657 1.791 3 4 3v-6c-2.209 0-4 1.343-4 3z"/><path fill="#F57552" d="M16 15c-.828 0-1.5.448-1.5 1s.672 1 1.5 1v-2z"/><path fill="#EB6B48" d="M17.5 16c0-.552-.672-1-1.5-1v2c.828 0 1.5-.448 1.5-1z"/><path fill="#FFD04D" d="M16.434 23.084c-.224-.053-.43-.246-.434-.475V28c1.38 0 2.665-.117 3.749-.463.498-.159.798-.671.678-1.18-.249-1.063-1.122-2.592-3.993-3.273z"/><path fill="#FFD96C" d="M15.326 20.723c-1.444.559-4.614 2.27-3.498 6.227a.955.955 0 00.651.655c1.034.293 2.236.395 3.521.395v-6.868a.496.496 0 00-.674-.409z"/></svg>

<?xml version="1.0" encoding="utf-8"?>
<!-- Generator: Adobe Illustrator 23.0.6, SVG Export Plug-In . SVG Version: 6.00 Build 0)  -->
<svg version="1.1" xmlns="http://www.w3.org/2000/svg" xmlns:xlink="http://www.w3.org/1999/xlink" x="0px" y="0px" width="32px"
	 height="32px" viewBox="0 0 32 32" enable-background="new 0 0 32 32" xml:space="preserve">
<g id="labels">
	<g>
	</g>
</g>
<g id="icons">
	<g>
		<path fill="#EB6B48" d="M19.017,29c-0.021-2,1.165-6,1.165-6l2.81-0.25c0,0-0.005,3.362-1.523,5.647
			c0.219,0.134,0.434,0.295,0.633,0.493c0.919,0.919,1.167,2.161,0.555,2.773c-0.613,0.613-1.854,0.364-2.773-0.555
			C19.228,30.454,18.922,29.638,19.017,29z"/>
		<path fill="#F57552" d="M12.975,29c0.021-2-1.165-6-1.165-6L9,22.75c0,0,0.005,3.362,1.523,5.647
			c-0.219,0.134-0.434,0.295-0.633,0.493c-0.919,0.919-1.167,2.161-0.555,2.773c0.613,0.613,1.854,0.364,2.773-0.555
			C12.764,30.454,13.071,29.638,12.975,29z"/>
		<path fill="#EB6B48" d="M19.066,21c0,0,4.376-2.917,6.277-6.883c0.539-1.125,1.818-1.679,2.976-1.216l0,0
			c1.487,0.595,1.951,2.489,0.88,3.681c-1.688,1.88-4.612,4.288-9.133,5.418L19.066,21z"/>
		<path fill="#F57552" d="M13,21c0,0-4.376-2.917-6.277-6.883c-0.539-1.125-1.818-1.679-2.976-1.216l0,0
			c-1.487,0.595-1.951,2.489-0.88,3.681C4.555,18.462,7.479,20.87,12,22L13,21z"/>
		<path fill="#EB6B48" d="M23,22.75c0-4.349-3.134-8.75-7-8.75v14C19.866,28,23,27.099,23,22.75z"/>
		<path fill="#F57552" d="M16,14c-3.866,0-7,4.401-7,8.75S12.134,28,16,28V14z"/>
		<path fill="#FF805D" d="M16,5c-3.866,0-7,3.134-7,7c0,3.866,3.134,6,7,6V5z"/>
		<path fill="#F57552" d="M23,12c0-3.866-3.134-7-7-7v13C19.866,18,23,15.866,23,12z"/>
		<path fill="#FFFFFF" d="M14,8v5l-1.5,1c0,0-1.5-1-1.5-5L14,8z"/>
		<path fill="#F7F7F7" d="M18,8v5l1.5,1c0,0,1.5-1,1.5-5L18,8z"/>
		<path fill="#FF805D" d="M16,1.38C15.267,0.541,14.202,0,13,0c-2.209,0-4,1.791-4,4c0,2.209,1.791,4,4,4c1.202,0,3-0.38,3-0.38
			V1.38z"/>
		<path fill="#F57552" d="M19,0c-1.202,0-2.267,0.541-3,1.38V7.62c0,0,1.798,0.38,3,0.38c2.209,0,4-1.791,4-4
			C23,1.791,21.209,0,19,0z"/>
		<circle fill="#FF8D6E" cx="8" cy="5" r="4"/>
		<path fill="#2B3332" d="M19.5,11c0,1.036-0.336,1.5-0.75,1.5S18,12.036,18,11c0-0.48,0-2,0-2h1.5C19.5,9,19.5,9.964,19.5,11z"/>
		<path fill="#373F3F" d="M14,11c0,1.036-0.336,1.5-0.75,1.5S12.5,12.036,12.5,11s0-2,0-2H14C14,9,14,10.353,14,11z"/>
		<path fill="#FFFFFF" d="M13.5,10.5c0,0.276-0.112,0.5-0.25,0.5S13,10.776,13,10.5c0-0.09,0-1,0-1h0.5
			C13.5,9.5,13.5,10.224,13.5,10.5z"/>
		<circle fill="#FF9A7E" cx="12" cy="6" r="4"/>
		<path fill="#F7F7F7" d="M19,10.5c0,0.276-0.112,0.5-0.25,0.5s-0.25-0.224-0.25-0.5c0-0.09,0-1,0-1H19C19,9.5,19,10.224,19,10.5z"
			/>
		<circle fill="#FF805D" cx="25" cy="5" r="4"/>
		<circle fill="#FF8D6E" cx="20" cy="6" r="4"/>
		<path fill="#FFD04D" d="M16,12v6c2.209,0,4-1.343,4-3S18.209,12,16,12z"/>
		<path fill="#FFD96C" d="M12,15c0,1.657,1.791,3,4,3v-6C13.791,12,12,13.343,12,15z"/>
		<path fill="#F57552" d="M16,15c-0.828,0-1.5,0.448-1.5,1c0,0.552,0.672,1,1.5,1V15z"/>
		<path fill="#EB6B48" d="M17.5,16c0-0.552-0.672-1-1.5-1v2C16.828,17,17.5,16.552,17.5,16z"/>
		<path fill="#FFD04D" d="M16.434,23.084c-0.224-0.053-0.43-0.246-0.434-0.475V28c1.38,0,2.665-0.117,3.749-0.463
			c0.498-0.159,0.798-0.671,0.678-1.18C20.178,25.294,19.305,23.765,16.434,23.084z"/>
		<path fill="#FFD96C" d="M15.326,20.723c-1.444,0.559-4.614,2.27-3.498,6.227c0.088,0.313,0.338,0.566,0.651,0.655
			C13.513,27.898,14.715,28,16,28v-6.868C15.963,20.81,15.637,20.603,15.326,20.723z"/>
	</g>
</g>
</svg>
